X: 5211
T: Broad Walk, The
R: jig
M: 6/8
K: Dmajor
|:AfA f2a|baf eed|AeA e2f|fge fdB|
AfA f2a|baf e2d|efg fed|B3B B2A:|
|:B3 Bde|g2 f2 ed|e3 eAA|cde edc:|
B3 Bde|g2 f2 ed|e3 eAA|cde edc|
B3 Bde|g2 f2 ed|e3 eAA|cde edB||

